X:1
T:Title
L:1/8
M:3/4
K:F
V:1 treble nm="Grand Piano"
V:1
 z2 z2[Q:1/4=100] DD | A2 A2 AB | c2 A2 GA | G4 FG | A2 FD EF | G2 E2 CE | D4 DD | A2 A2 AB | %8
 c2 A2 GA | G4 FG | A2 FD EF | G2 E2 CE | D4 cc/B/ | c2 c2 cc/B/ | c2 c2 cd | d2 A2 Bc | d2 A2 AB | %17
 c2 A2 G/F/A/G/ | G4 FG | AB c2 AG | A2 G2 FG | G4 FG | A2 F2 EF | G2 E2 CE | D4 z2 |] %25

